X:7
T:Honorable Mrs. Maule's Reel
C:"By R. Mackintosh"
S:Petrie's Second Collection of Strathspey Reels and Country Dances &c.
Z:Steve Wyrick , 6/5/04
N:Petrie's Second Collection, page 3
L:1/8
M:C|
R:Reel
K:A
e|a2 (ed)      cAec|Bcde fBbg|a2 (ed)      cAec|dfed cAA  :|
e|(c/B/A) (EA) cAec|Bcde fBed|(c/B/A) (EA) cAec|dBed c(AAe)|
  (c/B/A) (EA) cAec|Bcde fBed|cefd         eabg|afed cAA  |]
